X: 30223
T: Old Harvest Home, The
R: hornpipe
M: 4/4
K: Dmajor
|:AF|DFAF DGBG|FAde fdAF|g2 ef gfgf|(3(efe) (3(dcB) (3(ABA) (3(GFE)|
DFAF DGBG|FAde fdAF|g2 ef gecd|eddc d2:|
|:cd|eA (3(cBA) eA (3(cBA)|g2 fg eA (3(cBA)|e2 ef gfgf|(3(efe) (3(dcB) (3(ABA) (3(GFE)|
DFAF DGBG|FAde fdAF|g2 ef gecd|eddc d2:|

